X: 1
T: The Wind That Shakes The Barley
R: reel
M: 4/4
L: 1/8
K: Dmaj
|A2AB AFED|B2BA BcdB|A2AB AFED|gfed BcdB|A2AB AFED|B2BA BcdB|A2AB AFED|gfed Bcde||f2fd g2ge|f2fd Bcde|f2fd g2fg|afed Bcde|f2fd g2ge|f2fd Bcde|f2ae g2be|afed BcdB|


Tune 116	Setting 12710

